account-multiple-minus-outline.svg

<svg  viewBox="0 0 24 24" fill="currentColor"><path  d="M13 11A3 3 0 1 0 10 8A3 3 0 0 0 13 11M13 7A1 1 0 1 1 12 8A1 1 0 0 1 13 7M17.11 10.86A5 5 0 0 0 17.11 5.14A2.91 2.91 0 0 1 18 5A3 3 0 0 1 18 11A2.91 2.91 0 0 1 17.11 10.86M13 13C7 13 7 17 7 17V19H19V17S19 13 13 13M9 17C9 16.71 9.32 15 13 15C16.5 15 16.94 16.56 17 17M24 17V19H21V17A5.6 5.6 0 0 0 19.2 13.06C24 13.55 24 17 24 17M8 12H0V10H8Z"/></svg>

<svg fill="currentColor" viewBox="0 0 24 24"><path d="M13 11a3 3 0 1 0-3-3 3 3 0 0 0 3 3m0-4a1 1 0 1 1-1 1 1 1 0 0 1 1-1m4.11 3.86a5 5 0 0 0 0-5.72A2.9 2.9 0 0 1 18 5a3 3 0 0 1 0 6 2.9 2.9 0 0 1-.89-.14M13 13c-6 0-6 4-6 4v2h12v-2s0-4-6-4m-4 4c0-.29.32-2 4-2 3.5 0 3.94 1.56 4 2m7 0v2h-3v-2a5.6 5.6 0 0 0-1.8-3.94C24 13.55 24 17 24 17M8 12H0v-2h8Z"/></svg>
